X:9
T:No.109 The 21 Highland
M:4/4
L:1/8
C:highland
K:G
A,>B,||C>EA,>B, C>A,B,>C|B,>DG,>D B,>DA,>G,|
C>EA,>B, C>A,B,>C|[1B,2G,>B,A,2A,>B,:|[2B,2G,>B,A,2A,>d||
c2e>c a>ce>c|c2e>c (3ege (3dBG|
c2e>c a>ce>c|(3ege (3dcB A2A>B|
c2e>c a>ce>c|c2e>c (3ege (3dBG|
A<aa>g (3efg (3fga|(3gag (3fed (3cBA (3GED||
